X:1
T:New South Wales, 87.87 D
T:New South Wales, 87.87 D
T:Frank Marion Davis, 1878
T:Public Domain Courtesy of the Cyber Hymnal™
C:Frank Marion Davis, 1878
Z:Public Domain
Z:Courtesy of the Cyber Hymnal™
%%score ( 1 2 ) ( 3 4 )
L:1/8
Q:1/4=87
M:3/4
K:G
V:1 treble 
V:2 treble 
V:3 bass 
V:4 bass 
V:1
 D>[DG] | [GB]2 [GB]2 [Gc]>[GB] | [GB]2 [FA]2 D>[DF] | [FA]3 [FA] (3([FA][GB])[Ac] | %4
 [GB]4 [DG]>[DG] | [EG]2 [EG]2 (3(AG)[CE] | [B,D]2 [DG]2 [DB]>[DB] | [Ec]3 [EA] [DG][DF] | %8
 [DG]4 (3(G[FA])[=FB] x3/4 | [Ec]2 [Ec]2 (3(EG)[Ec] | [EB]2 [DG]2 (3(FG)[GB] | %11
 [FA]2 [EG]2 (3(FE)[DF] | ([DG]2 [GB]2) (3([GB][Ac])[Bd] x | [Bd]2 [GB]2 (3[Bd][Ac][GB] x | %14
 [Ec]2 [Ec]2 (3(cB)[EA] | [DG]2 [DG]2 (3(FG)[DA] | [DG]4 |] %17
V:2
 D3/2 x/ | x6 | x4 D3/2 x/ | x6 | x6 | x4 E2 | x6 | x6 | x4 G x7/4 | x4 E2 | x4 D2 | x4 D2 | x7 | %13
 x7 | x4 E2 | x4 D2 | x4 |] %17
V:3
 [G,B,]>[G,B,] | [G,D]2 [G,D]2 [G,E]>[G,D] | [D,D]2 [D,D]2 [D,F,]>[D,A,] | %3
 [D,D]3 [D,D] (3:2:2[D,D]2 [D,D] | [G,D]4 [G,B,]>[G,B,] | [C,C]2 [C,C]2 (3:2:2[C,C]2 [C,G,] | %6
 G,2 [G,B,]2 G,>G, | [C,G,]3 [C,C] [D,B,][D,A,] | [G,B,]4 (3:2:2(B,A,)G, x5/12 | %9
 [C,G,]2 [C,G,]2 (3:2:2[C,G,]2 [C,G,] | G,2 [G,B,]2 (3(A,B,)[D,D] | %11
 [D,D]2 [D,B,]2 (3:2:2[D,C]2 [D,C] | (B,2 D2) G,2 G, | G,2 G,2 G,2 G, | %14
 [C,G,]2 [C,G,]2 (3:2:2[C,G,]2 [B,,C] | [D,B,]2 [D,B,]2 (3(A,B,)[D,C] | [G,,B,]4 |] %17
V:4
 x2 | x6 | x6 | x6 | x6 | x6 | G,2 G,>G, x2 | x6 | x4 G,2 (3:2:1G, | x6 | G,2 D,2 x2 | x6 | %12
 G,4 (3:2:2G,2 G, x | G,2 G,2 (3:2:2G,2 G, x | x6 | x4 D,2 | x4 |] %17

